svgs/solid/phone-arrow-down-left.svg

<svg xmlns="http://www.w3.org/2000/svg" viewBox="0 0 512 512"><!-- Font Awesome Pro 6.0.0-alpha2 by @fontawesome - https://fontawesome.com License - https://fontawesome.com/license (Commercial License) --><path d="M493.094 351.247L384.609 304.747C371.828 299.215 356.813 302.934 348.125 313.715L304.078 367.528C234.828 333.528 178.531 277.247 144.547 208.028L198.375 163.932C209.125 155.151 212.797 140.276 207.359 127.495L160.828 18.932C154.734 5.026 139.656 -2.599 124.969 0.807L24.219 24.057C9.969 27.307 0 39.839 0 54.495C0 306.778 205.234 511.999 457.484 511.999C472.156 511.999 484.688 502.03 487.953 487.78L511.203 386.997C514.578 372.403 507 357.247 493.094 351.247ZM320 223.999H416C433.672 223.999 448 209.671 448 191.999S433.672 159.999 416 159.999H397.25L502.625 54.624C515.125 42.124 515.125 21.874 502.625 9.374S469.875 -3.126 457.375 9.374L352 114.749V95.999C352 78.327 337.672 63.999 320 63.999S288 78.327 288 95.999V191.999C288 209.671 302.328 223.999 320 223.999Z"/></svg>

<svg xmlns="http://www.w3.org/2000/svg" viewBox="0 0 512 512"><!--! Font Awesome Pro 6.0.0-alpha3 by @fontawesome - https://fontawesome.com License - https://fontawesome.com/license (Commercial License) --><path d="M493.1 351.2L384.6 304.7c-12.78-5.531-27.8-1.812-36.48 8.969l-44.05 53.81c-69.25-34-125.5-90.28-159.5-159.5l53.83-44.09c10.75-8.781 14.42-23.66 8.984-36.44L160.8 18.93C154.7 5.027 139.7-2.598 124.1 .8079L24.22 24.06C9.969 27.31 0 39.84 0 54.5C0 306.8 205.2 512 457.5 512c14.67 0 27.2-9.969 30.47-24.22l23.25-100.8C514.6 372.4 507 357.2 493.1 351.2zM320 224h96c17.67 0 32-14.33 32-32s-14.33-32-32-32h-18.75l105.4-105.4c12.5-12.5 12.5-32.75 0-45.25s-32.75-12.5-45.25 0L352 114.8V96c0-17.67-14.33-32-32-32s-32 14.33-32 32v96C288 209.7 302.3 224 320 224z"/></svg>
